report_00007_2020-12-11T15:55:29.892Z/server-response-time/samples/empty/raw/values.svg

<svg width="640" height="490" xmlns="http://www.w3.org/2000/svg" xmlns:xlink="http://www.w3.org/1999/xlink"><path fill="#fff" d="M0 0h640v490H0z"/><defs><path id="d" stroke-width=".222" stroke="currentColor" d="M-1-1h2v2h-2z"/><path id="b" stroke-width=".222" stroke="currentColor" d="M0-1.33l-1.33 2h2.66z"/><path id="f" stroke-width=".222" stroke="currentColor" d="M0 1.33L1.265.411.782-1.067l-1.564-.009-.483 1.487z"/><use xlink:href="#b" id="c" stroke="currentColor" transform="rotate(180)"/><use xlink:href="#d" id="e" stroke="currentColor" transform="rotate(45)"/><circle id="a" stroke-width=".222" stroke="currentColor" cx="0" cy="0" r="1"/></defs><g fill="none" color="#000" stroke="currentColor"><path stroke="#000" d="M37.3 432h9m568.7 0h-9"/><text transform="translate(29 435.9)" stroke="none" fill="#000" font-family="Arial" font-size="12" text-anchor="end"><tspan>1</tspan></text></g><g fill="none" color="#000" stroke="currentColor"><path stroke="#000" d="M37.3 377h9m568.7 0h-9"/><text transform="translate(29 380.9)" stroke="none" fill="#000" font-family="Arial" font-size="12" text-anchor="end"><tspan>2</tspan></text></g><g fill="none" color="#000" stroke="currentColor"><path stroke="#000" d="M37.3 322h9m568.7 0h-9"/><text transform="translate(29 325.9)" stroke="none" fill="#000" font-family="Arial" font-size="12" text-anchor="end"><tspan>3</tspan></text></g><g fill="none" color="#000" stroke="currentColor"><path stroke="#000" d="M37.3 267h9m568.7 0h-9"/><text transform="translate(29 270.9)" stroke="none" fill="#000" font-family="Arial" font-size="12" text-anchor="end"><tspan>4</tspan></text></g><g fill="none" color="#000" stroke="currentColor"><path stroke="#000" d="M37.3 211.9h9m568.7 0h-9"/><text transform="translate(29 215.8)" stroke="none" fill="#000" font-family="Arial" font-size="12" text-anchor="end"><tspan>5</tspan></text></g><g fill="none" color="#000" stroke="currentColor"><path stroke="#000" d="M37.3 156.9h9m568.7 0h-9"/><text transform="translate(29 160.8)" stroke="none" fill="#000" font-family="Arial" font-size="12" text-anchor="end"><tspan>6</tspan></text></g><g fill="none" color="#000" stroke="currentColor"><path stroke="#000" d="M37.3 101.9h9m568.7 0h-9"/><text transform="translate(29 105.8)" stroke="none" fill="#000" font-family="Arial" font-size="12" text-anchor="end"><tspan>7</tspan></text></g><g fill="none" color="#000" stroke="currentColor"><path stroke="#000" d="M37.3 46.9h9m568.7 0h-9"/><text transform="translate(29 50.8)" stroke="none" fill="#000" font-family="Arial" font-size="12" text-anchor="end"><tspan>8</tspan></text></g><g fill="none" color="#000" stroke="currentColor"><path stroke="#000" d="M37.3 436v-9m0-408.9v9"/><text transform="translate(37.3 457.9)" stroke="none" fill="#000" font-family="Arial" font-size="12" text-anchor="middle"><tspan>0</tspan></text></g><g fill="none" color="#000" stroke="currentColor"><path stroke="#000" d="M95.7 436v-9m0-408.9v9"/><text transform="translate(95.7 457.9)" stroke="none" fill="#000" font-family="Arial" font-size="12" text-anchor="middle"><tspan>10</tspan></text></g><g fill="none" color="#000" stroke="currentColor"><path stroke="#000" d="M154 436v-9m0-408.9v9"/><text transform="translate(154 457.9)" stroke="none" fill="#000" font-family="Arial" font-size="12" text-anchor="middle"><tspan>20</tspan></text></g><g fill="none" color="#000" stroke="currentColor"><path stroke="#000" d="M212.4 436v-9m0-408.9v9"/><text transform="translate(212.4 457.9)" stroke="none" fill="#000" font-family="Arial" font-size="12" text-anchor="middle"><tspan>30</tspan></text></g><g fill="none" color="#000" stroke="currentColor"><path stroke="#000" d="M270.7 436v-9m0-408.9v9"/><text transform="translate(270.7 457.9)" stroke="none" fill="#000" font-family="Arial" font-size="12" text-anchor="middle"><tspan>40</tspan></text></g><g fill="none" color="#000" stroke="currentColor"><path stroke="#000" d="M329.1 436v-9m0-408.9v9"/><text transform="translate(329.1 457.9)" stroke="none" fill="#000" font-family="Arial" font-size="12" text-anchor="middle"><tspan>50</tspan></text></g><g fill="none" color="#000" stroke="currentColor"><path stroke="#000" d="M387.4 436v-9m0-408.9v9"/><text transform="translate(387.4 457.9)" stroke="none" fill="#000" font-family="Arial" font-size="12" text-anchor="middle"><tspan>60</tspan></text></g><g fill="none" color="#000" stroke="currentColor"><path stroke="#000" d="M445.8 436v-9m0-408.9v9"/><text transform="translate(445.8 457.9)" stroke="none" fill="#000" font-family="Arial" font-size="12" text-anchor="middle"><tspan>70</tspan></text></g><g fill="none" color="#000" stroke="currentColor"><path stroke="#000" d="M504.1 436v-9m0-408.9v9"/><text transform="translate(504.1 457.9)" stroke="none" fill="#000" font-family="Arial" font-size="12" text-anchor="middle"><tspan>80</tspan></text></g><g fill="none" color="#000" stroke="currentColor"><path stroke="#000" d="M562.5 436v-9m0-408.9v9"/><text transform="translate(562.5 457.9)" stroke="none" fill="#000" font-family="Arial" font-size="12" text-anchor="middle"><tspan>90</tspan></text></g><path stroke="#000" d="M37.3 18.1V436H615V18.1H37.3z" fill="none" color="#000"/><text transform="translate(309.2 475.9)" stroke="none" fill="#000" font-family="Arial" font-size="12" text-anchor="end" color="#000"><tspan>raw</tspan></text><path stroke="#9400D3" d="M317.5 472h42.2M37.3 26.1l5.8 368.3 5.9 19.1 5.8 14.5 5.8-16.5 5.9 2.2 5.8-13.5 5.8 9.9L84 415l5.8-13.9 5.9 12.6 5.8 5.2 5.8-5.5 5.9 3.2 5.8-4.5 5.8-.1 5.9 7.9 5.8-2.6 5.8 2 5.9-.7 5.8-1.1 5.8-3.9 5.9 6.5 5.8.8 5.8 2.4 5.9-5 5.8-.4 5.9.9 5.8-1.4 5.8-.2 5.9 3.9 5.8-1.6h5.8l5.9-2.2 5.8.5 5.8.1 5.9-7.9 5.8 10.1 5.8 1.3 5.9-14.3 5.8 10.7 5.8 2.5 5.9.8 5.8-5.4 5.9 7.5 5.8-7.1 5.8.9 5.9-8.3 5.8 8.9 5.8-17.9 5.9 18 5.8 4.8 5.8 1.8 5.9-6.1 5.8 1.6 5.8 4.3 5.9-3.5 5.8-1.8 5.9-12 5.8 17.8 5.8-5.6 5.9-.4 5.8-1.5 5.8 1.9h5.9l5.8 3 5.8-2.5 5.9 2.4 5.8-7.7 5.8 3.2 5.9 1.5h5.8l5.8-.6 5.9 2.5 5.8 3.2 5.9-1.9 5.8 1.2 5.8-15.9 5.9 12.4 5.8.4 5.8 1.2 5.9-3.8 5.8 1.9 5.8.3 5.9-3.5 5.8-7.9 5.8-8.5 5.9 14.6 5.8 5.6 5.8 1 5.9-2.5 5.8-4.7 5.9 1.8 5.8-.4 5.8 6.1 5.9-7.6 5.8 8.3 5.8-9 5.9 3.7 5.8 2.8" fill="none" color="#000"/><g fill="none" color="#000" stroke="currentColor"><path stroke="#000" d="M37.3 18.1V436H615V18.1H37.3z"/></g></svg>

<?xml version="1.0" encoding="utf-8"  standalone="no"?>
<svg 
 width="640" height="490"
 viewBox="0 0 640 490"
 xmlns="http://www.w3.org/2000/svg"
 xmlns:xlink="http://www.w3.org/1999/xlink"
>

<title>Gnuplot</title>
<desc>Produced by GNUPLOT 5.4 patchlevel 0 </desc>

<g id="gnuplot_canvas">

<rect x="0" y="0" width="640" height="490" fill="#ffffff"/>
<defs>

	<circle id='gpDot' r='0.5' stroke-width='0.5' stroke='currentColor'/>
	<path id='gpPt0' stroke-width='0.222' stroke='currentColor' d='M-1,0 h2 M0,-1 v2'/>
	<path id='gpPt1' stroke-width='0.222' stroke='currentColor' d='M-1,-1 L1,1 M1,-1 L-1,1'/>
	<path id='gpPt2' stroke-width='0.222' stroke='currentColor' d='M-1,0 L1,0 M0,-1 L0,1 M-1,-1 L1,1 M-1,1 L1,-1'/>
	<rect id='gpPt3' stroke-width='0.222' stroke='currentColor' x='-1' y='-1' width='2' height='2'/>
	<rect id='gpPt4' stroke-width='0.222' stroke='currentColor' fill='currentColor' x='-1' y='-1' width='2' height='2'/>
	<circle id='gpPt5' stroke-width='0.222' stroke='currentColor' cx='0' cy='0' r='1'/>
	<use xlink:href='#gpPt5' id='gpPt6' fill='currentColor' stroke='none'/>
	<path id='gpPt7' stroke-width='0.222' stroke='currentColor' d='M0,-1.33 L-1.33,0.67 L1.33,0.67 z'/>
	<use xlink:href='#gpPt7' id='gpPt8' fill='currentColor' stroke='none'/>
	<use xlink:href='#gpPt7' id='gpPt9' stroke='currentColor' transform='rotate(180)'/>
	<use xlink:href='#gpPt9' id='gpPt10' fill='currentColor' stroke='none'/>
	<use xlink:href='#gpPt3' id='gpPt11' stroke='currentColor' transform='rotate(45)'/>
	<use xlink:href='#gpPt11' id='gpPt12' fill='currentColor' stroke='none'/>
	<path id='gpPt13' stroke-width='0.222' stroke='currentColor' d='M0,1.330 L1.265,0.411 L0.782,-1.067 L-0.782,-1.076 L-1.265,0.411 z'/>
	<use xlink:href='#gpPt13' id='gpPt14' fill='currentColor' stroke='none'/>
	<filter id='textbox' filterUnits='objectBoundingBox' x='0' y='0' height='1' width='1'>
	  <feFlood flood-color='#FFFFFF' flood-opacity='1' result='bgnd'/>
	  <feComposite in='SourceGraphic' in2='bgnd' operator='atop'/>
	</filter>
	<filter id='greybox' filterUnits='objectBoundingBox' x='0' y='0' height='1' width='1'>
	  <feFlood flood-color='lightgrey' flood-opacity='1' result='grey'/>
	  <feComposite in='SourceGraphic' in2='grey' operator='atop'/>
	</filter>
</defs>
<g fill="none" color="#FFFFFF" stroke="black" stroke-width="1.00" stroke-linecap="butt" stroke-linejoin="miter">
</g>
<g fill="none" color="black" stroke="currentColor" stroke-width="1.00" stroke-linecap="butt" stroke-linejoin="miter">
	<path stroke='black'  d='M37.3,432.0 L46.3,432.0 M615.0,432.0 L606.0,432.0  '/>	<g transform="translate(29.0,435.9)" stroke="none" fill="black" font-family="Arial" font-size="12.00"  text-anchor="end">
		<text><tspan font-family="Arial" > 1</tspan></text>
	</g>
</g>
<g fill="none" color="black" stroke="currentColor" stroke-width="1.00" stroke-linecap="butt" stroke-linejoin="miter">
	<path stroke='black'  d='M37.3,377.0 L46.3,377.0 M615.0,377.0 L606.0,377.0  '/>	<g transform="translate(29.0,380.9)" stroke="none" fill="black" font-family="Arial" font-size="12.00"  text-anchor="end">
		<text><tspan font-family="Arial" > 2</tspan></text>
	</g>
</g>
<g fill="none" color="black" stroke="currentColor" stroke-width="1.00" stroke-linecap="butt" stroke-linejoin="miter">
	<path stroke='black'  d='M37.3,322.0 L46.3,322.0 M615.0,322.0 L606.0,322.0  '/>	<g transform="translate(29.0,325.9)" stroke="none" fill="black" font-family="Arial" font-size="12.00"  text-anchor="end">
		<text><tspan font-family="Arial" > 3</tspan></text>
	</g>
</g>
<g fill="none" color="black" stroke="currentColor" stroke-width="1.00" stroke-linecap="butt" stroke-linejoin="miter">
	<path stroke='black'  d='M37.3,267.0 L46.3,267.0 M615.0,267.0 L606.0,267.0  '/>	<g transform="translate(29.0,270.9)" stroke="none" fill="black" font-family="Arial" font-size="12.00"  text-anchor="end">
		<text><tspan font-family="Arial" > 4</tspan></text>
	</g>
</g>
<g fill="none" color="black" stroke="currentColor" stroke-width="1.00" stroke-linecap="butt" stroke-linejoin="miter">
	<path stroke='black'  d='M37.3,211.9 L46.3,211.9 M615.0,211.9 L606.0,211.9  '/>	<g transform="translate(29.0,215.8)" stroke="none" fill="black" font-family="Arial" font-size="12.00"  text-anchor="end">
		<text><tspan font-family="Arial" > 5</tspan></text>
	</g>
</g>
<g fill="none" color="black" stroke="currentColor" stroke-width="1.00" stroke-linecap="butt" stroke-linejoin="miter">
	<path stroke='black'  d='M37.3,156.9 L46.3,156.9 M615.0,156.9 L606.0,156.9  '/>	<g transform="translate(29.0,160.8)" stroke="none" fill="black" font-family="Arial" font-size="12.00"  text-anchor="end">
		<text><tspan font-family="Arial" > 6</tspan></text>
	</g>
</g>
<g fill="none" color="black" stroke="currentColor" stroke-width="1.00" stroke-linecap="butt" stroke-linejoin="miter">
	<path stroke='black'  d='M37.3,101.9 L46.3,101.9 M615.0,101.9 L606.0,101.9  '/>	<g transform="translate(29.0,105.8)" stroke="none" fill="black" font-family="Arial" font-size="12.00"  text-anchor="end">
		<text><tspan font-family="Arial" > 7</tspan></text>
	</g>
</g>
<g fill="none" color="black" stroke="currentColor" stroke-width="1.00" stroke-linecap="butt" stroke-linejoin="miter">
	<path stroke='black'  d='M37.3,46.9 L46.3,46.9 M615.0,46.9 L606.0,46.9  '/>	<g transform="translate(29.0,50.8)" stroke="none" fill="black" font-family="Arial" font-size="12.00"  text-anchor="end">
		<text><tspan font-family="Arial" > 8</tspan></text>
	</g>
</g>
<g fill="none" color="black" stroke="currentColor" stroke-width="1.00" stroke-linecap="butt" stroke-linejoin="miter">
	<path stroke='black'  d='M37.3,436.0 L37.3,427.0 M37.3,18.1 L37.3,27.1  '/>	<g transform="translate(37.3,457.9)" stroke="none" fill="black" font-family="Arial" font-size="12.00"  text-anchor="middle">
		<text><tspan font-family="Arial" > 0</tspan></text>
	</g>
</g>
<g fill="none" color="black" stroke="currentColor" stroke-width="1.00" stroke-linecap="butt" stroke-linejoin="miter">
	<path stroke='black'  d='M95.7,436.0 L95.7,427.0 M95.7,18.1 L95.7,27.1  '/>	<g transform="translate(95.7,457.9)" stroke="none" fill="black" font-family="Arial" font-size="12.00"  text-anchor="middle">
		<text><tspan font-family="Arial" > 10</tspan></text>
	</g>
</g>
<g fill="none" color="black" stroke="currentColor" stroke-width="1.00" stroke-linecap="butt" stroke-linejoin="miter">
	<path stroke='black'  d='M154.0,436.0 L154.0,427.0 M154.0,18.1 L154.0,27.1  '/>	<g transform="translate(154.0,457.9)" stroke="none" fill="black" font-family="Arial" font-size="12.00"  text-anchor="middle">
		<text><tspan font-family="Arial" > 20</tspan></text>
	</g>
</g>
<g fill="none" color="black" stroke="currentColor" stroke-width="1.00" stroke-linecap="butt" stroke-linejoin="miter">
	<path stroke='black'  d='M212.4,436.0 L212.4,427.0 M212.4,18.1 L212.4,27.1  '/>	<g transform="translate(212.4,457.9)" stroke="none" fill="black" font-family="Arial" font-size="12.00"  text-anchor="middle">
		<text><tspan font-family="Arial" > 30</tspan></text>
	</g>
</g>
<g fill="none" color="black" stroke="currentColor" stroke-width="1.00" stroke-linecap="butt" stroke-linejoin="miter">
	<path stroke='black'  d='M270.7,436.0 L270.7,427.0 M270.7,18.1 L270.7,27.1  '/>	<g transform="translate(270.7,457.9)" stroke="none" fill="black" font-family="Arial" font-size="12.00"  text-anchor="middle">
		<text><tspan font-family="Arial" > 40</tspan></text>
	</g>
</g>
<g fill="none" color="black" stroke="currentColor" stroke-width="1.00" stroke-linecap="butt" stroke-linejoin="miter">
	<path stroke='black'  d='M329.1,436.0 L329.1,427.0 M329.1,18.1 L329.1,27.1  '/>	<g transform="translate(329.1,457.9)" stroke="none" fill="black" font-family="Arial" font-size="12.00"  text-anchor="middle">
		<text><tspan font-family="Arial" > 50</tspan></text>
	</g>
</g>
<g fill="none" color="black" stroke="currentColor" stroke-width="1.00" stroke-linecap="butt" stroke-linejoin="miter">
	<path stroke='black'  d='M387.4,436.0 L387.4,427.0 M387.4,18.1 L387.4,27.1  '/>	<g transform="translate(387.4,457.9)" stroke="none" fill="black" font-family="Arial" font-size="12.00"  text-anchor="middle">
		<text><tspan font-family="Arial" > 60</tspan></text>
	</g>
</g>
<g fill="none" color="black" stroke="currentColor" stroke-width="1.00" stroke-linecap="butt" stroke-linejoin="miter">
	<path stroke='black'  d='M445.8,436.0 L445.8,427.0 M445.8,18.1 L445.8,27.1  '/>	<g transform="translate(445.8,457.9)" stroke="none" fill="black" font-family="Arial" font-size="12.00"  text-anchor="middle">
		<text><tspan font-family="Arial" > 70</tspan></text>
	</g>
</g>
<g fill="none" color="black" stroke="currentColor" stroke-width="1.00" stroke-linecap="butt" stroke-linejoin="miter">
	<path stroke='black'  d='M504.1,436.0 L504.1,427.0 M504.1,18.1 L504.1,27.1  '/>	<g transform="translate(504.1,457.9)" stroke="none" fill="black" font-family="Arial" font-size="12.00"  text-anchor="middle">
		<text><tspan font-family="Arial" > 80</tspan></text>
	</g>
</g>
<g fill="none" color="black" stroke="currentColor" stroke-width="1.00" stroke-linecap="butt" stroke-linejoin="miter">
	<path stroke='black'  d='M562.5,436.0 L562.5,427.0 M562.5,18.1 L562.5,27.1  '/>	<g transform="translate(562.5,457.9)" stroke="none" fill="black" font-family="Arial" font-size="12.00"  text-anchor="middle">
		<text><tspan font-family="Arial" > 90</tspan></text>
	</g>
</g>
<g fill="none" color="black" stroke="currentColor" stroke-width="1.00" stroke-linecap="butt" stroke-linejoin="miter">
</g>
<g fill="none" color="black" stroke="currentColor" stroke-width="1.00" stroke-linecap="butt" stroke-linejoin="miter">
	<path stroke='black'  d='M37.3,18.1 L37.3,436.0 L615.0,436.0 L615.0,18.1 L37.3,18.1 Z  '/></g>
<g fill="none" color="black" stroke="currentColor" stroke-width="1.00" stroke-linecap="butt" stroke-linejoin="miter">
</g>
	<g id="gnuplot_plot_1" ><title>raw</title>
<g fill="none" color="black" stroke="currentColor" stroke-width="1.00" stroke-linecap="butt" stroke-linejoin="miter">
	<g transform="translate(309.2,475.9)" stroke="none" fill="black" font-family="Arial" font-size="12.00"  text-anchor="end">
		<text><tspan font-family="Arial" >raw</tspan></text>
	</g>
</g>
<g fill="none" color="black" stroke="currentColor" stroke-width="1.00" stroke-linecap="butt" stroke-linejoin="miter">
	<path stroke='rgb(148,   0, 211)'  d='M317.5,472.0 L359.7,472.0 M37.3,26.1 L43.1,394.4 L49.0,413.5 L54.8,428.0 L60.6,411.5 L66.5,413.7
		L72.3,400.2 L78.1,410.1 L84.0,415.0 L89.8,401.1 L95.7,413.7 L101.5,418.9 L107.3,413.4 L113.2,416.6
		L119.0,412.1 L124.8,412.0 L130.7,419.9 L136.5,417.3 L142.3,419.3 L148.2,418.6 L154.0,417.5 L159.8,413.6
		L165.7,420.1 L171.5,420.9 L177.3,423.3 L183.2,418.3 L189.0,417.9 L194.9,418.8 L200.7,417.4 L206.5,417.2
		L212.4,421.1 L218.2,419.5 L224.0,419.5 L229.9,417.3 L235.7,417.8 L241.5,417.9 L247.4,410.0 L253.2,420.1
		L259.0,421.4 L264.9,407.1 L270.7,417.8 L276.5,420.3 L282.4,421.1 L288.2,415.7 L294.1,423.2 L299.9,416.1
		L305.7,417.0 L311.6,408.7 L317.4,417.6 L323.2,399.7 L329.1,417.7 L334.9,422.5 L340.7,424.3 L346.6,418.2
		L352.4,419.8 L358.2,424.1 L364.1,420.6 L369.9,418.8 L375.8,406.8 L381.6,424.6 L387.4,419.0 L393.3,418.6
		L399.1,417.1 L404.9,419.0 L410.8,419.0 L416.6,422.0 L422.4,419.5 L428.3,421.9 L434.1,414.2 L439.9,417.4
		L445.8,418.9 L451.6,418.9 L457.4,418.3 L463.3,420.8 L469.1,424.0 L475.0,422.1 L480.8,423.3 L486.6,407.4
		L492.5,419.8 L498.3,420.2 L504.1,421.4 L510.0,417.6 L515.8,419.5 L521.6,419.8 L527.5,416.3 L533.3,408.4
		L539.1,399.9 L545.0,414.5 L550.8,420.1 L556.6,421.1 L562.5,418.6 L568.3,413.9 L574.2,415.7 L580.0,415.3
		L585.8,421.4 L591.7,413.8 L597.5,422.1 L603.3,413.1 L609.2,416.8 L615.0,419.6  '/></g>
	</g>
<g fill="none" color="#FFFFFF" stroke="rgb(148,   0, 211)" stroke-width="2.00" stroke-linecap="butt" stroke-linejoin="miter">
</g>
<g fill="none" color="black" stroke="currentColor" stroke-width="2.00" stroke-linecap="butt" stroke-linejoin="miter">
</g>
<g fill="none" color="black" stroke="black" stroke-width="1.00" stroke-linecap="butt" stroke-linejoin="miter">
</g>
<g fill="none" color="black" stroke="currentColor" stroke-width="1.00" stroke-linecap="butt" stroke-linejoin="miter">
	<path stroke='black'  d='M37.3,18.1 L37.3,436.0 L615.0,436.0 L615.0,18.1 L37.3,18.1 Z  '/></g>
<g fill="none" color="black" stroke="currentColor" stroke-width="1.00" stroke-linecap="butt" stroke-linejoin="miter">
</g>
</g>
</svg>
